X: 116
T:Elgin. JMP.116
M:2/2
L:1/2
S:John Miller MS. Perth, 1799.(for the fife)
R:sacred
O:Scotland
A:Perth
H:1799
Z:vmp.C. Graebe
K:A minor
c2 | BA | Be | dc | B2 ||\
A2 | dc | BA | B ||\
e | ce | dB | cd | B2 ||\
A2 | dc | BB | A2 ||
